import/keycloak-themes/catenax-shared/login/resources/images/background.svg

<?xml version="1.0" encoding="UTF-8" standalone="no"?>
<svg
   width="1440"
   height="3660"
   viewBox="0 0 1440 3660"
   fill="none"
   version="1.1"
   id="svg7"
   sodipodi:docname="background.svg"
   xml:space="preserve"
   inkscape:version="1.4.2 (f4327f4, 2025-05-13)"
   xmlns:inkscape="http://www.inkscape.org/namespaces/inkscape"
   xmlns:sodipodi="http://sodipodi.sourceforge.net/DTD/sodipodi-0.dtd"
   xmlns="http://www.w3.org/2000/svg"
   xmlns:svg="http://www.w3.org/2000/svg"><defs
     id="defs7" /><sodipodi:namedview
     id="namedview7"
     pagecolor="#ffffff"
     bordercolor="#000000"
     borderopacity="0.25"
     inkscape:showpageshadow="2"
     inkscape:pageopacity="0.0"
     inkscape:pagecheckerboard="0"
     inkscape:deskcolor="#d1d1d1"
     showguides="true"
     inkscape:zoom="0.35355339"
     inkscape:cx="1431.1841"
     inkscape:cy="1542.907"
     inkscape:window-width="3840"
     inkscape:window-height="2071"
     inkscape:window-x="2391"
     inkscape:window-y="-9"
     inkscape:window-maximized="1"
     inkscape:current-layer="g7"><sodipodi:guide
       position="0,1718.6427"
       orientation="1,0"
       id="guide8"
       inkscape:locked="false" /></sodipodi:namedview><g
     clip-path="url(#clip0_1_5)"
     id="g7"><rect
       width="1440"
       height="3660"
       fill="#ffa600"
       id="rect1"
       x="0"
       y="0"
       style="display:inline;fill:#7cc743;fill-opacity:1" /><g
       opacity="0.2"
       id="g6"
       style="display:none"><path
         d="m 0,3077.68 c 4.10338,7.78 8.4368,15.45 12.9973,23 43.3009,71.72 105.4227,130.21 179.6207,169.12 74.198,38.9 157.637,56.74 241.256,51.56 83.62,-5.17 164.225,-33.15 233.064,-80.9 l 700.532,-483.61 c 20.2,-14.02 36.68,-32.74 48.02,-54.56 11.34,-21.81 17.21,-46.06 17.09,-70.64 v -222.56 c 0.19,-6.75 -1.48,-13.43 -4.84,-19.29 -3.36,-5.86 -8.28,-10.68 -14.21,-13.92 -5.93,-3.24 -12.64,-4.78 -19.39,-4.44 -6.75,0.34 -13.27,2.53 -18.85,6.35 L 491.962,2988.8 c -22.863,15.81 -49.613,25.07 -77.358,26.77 -27.745,1.7 -55.428,-4.21 -80.054,-17.1 -24.626,-12.9 -45.258,-32.28 -59.664,-56.05 -14.406,-23.77 -22.037,-51.03 -22.069,-78.83 v -294.55 c 0.188,-49.33 12.331,-97.88 35.391,-141.5 23.06,-43.61 56.349,-80.98 97.015,-108.91 l 262.621,-181.55 c 20.275,-13.94 36.816,-32.65 48.168,-54.48 11.353,-21.84 17.169,-46.12 16.939,-70.73 v -407.86 c 0.241,-6.8 -1.42,-13.54 -4.796,-19.45 -3.376,-5.91 -8.334,-10.77 -14.316,-14.02 -5.982,-3.25 -12.752,-4.77 -19.55,-4.39 -6.798,0.39 -13.354,2.66 -18.933,6.56 l -184.053,128.34 c -20.198,14.02 -36.68,32.74 -48.023,54.56 -11.343,21.81 -17.207,46.06 -17.085,70.64 v 107.06 l -225.371,156.5 C 109.024,2139.39 50.2681,2205.58 9.55652,2282.75 6.24318,2289.04 3.05734,2295.37 0,2301.77 Z"
         fill="#ffffff"
         id="path1"
         style="display:inline" /><path
         d="m 0,1736.14 c 10.2774,0.05 20.5745,-0.23 30.8743,-0.87 83.6197,-5.17 164.2247,-33.15 233.0637,-80.9 l 700.53,-483.61 c 20.198,-14.02 36.682,-32.75 48.022,-54.56 11.34,-21.82 17.21,-46.06 17.09,-70.65 V 822.995 c 0.19,-6.754 -1.48,-13.431 -4.84,-19.292 -3.36,-5.861 -8.28,-10.678 -14.21,-13.918 -5.93,-3.24 -12.639,-4.777 -19.387,-4.44 -6.749,0.337 -13.272,2.534 -18.849,6.348 L 88.9618,1402.7 c -22.8627,15.81 -49.6133,25.07 -77.3581,26.77 -3.87184,0.24 -7.74244,0.33 -11.6037,0.27 z"
         fill="#ffffff"
         id="path2"
         style="display:inline" /><path
         d="m 0,720.244 244.844,-169.26 c 20.275,-13.943 36.816,-32.652 48.168,-54.484 11.353,-21.831 17.169,-46.117 16.939,-70.723 V 17.9171 c 0.241,-6.8044 -1.42,-13.54107 -4.796,-19.4537 -3.376,-5.91263 -8.334,-10.7671 -14.316,-14.0183 -5.982,-3.2512 -12.752,-4.7704 -19.55,-4.387 -6.798,0.3834 -13.354,2.6542 -18.933,6.5573 L 68.3027,114.952 C 48.1052,128.972 31.6233,147.698 20.2801,169.512 8.93695,191.325 3.0733,215.572 3.19537,240.159 V 347.21 L 0,349.429 Z"
         fill="#ffffff"
         id="path3"
         style="display:inline" /><path
         d="m 1440,413.29 c -31.12,-29.901 -66.45,-55.397 -105.04,-75.598 -74.29,-38.889 -157.83,-56.662 -241.51,-51.387 -83.69,5.274 -164.333,33.396 -233.154,81.304 L 159.139,851.532 c -20.274,13.966 -36.832,32.672 -48.233,54.493 -11.4009,21.82 -17.3009,46.095 -17.1869,70.714 v 222.551 c -0.1259,6.76 1.6065,13.43 5.0083,19.27 3.4016,5.85 8.3426,10.64 14.2836,13.87 5.941,3.23 12.655,4.77 19.409,4.44 6.754,-0.32 13.29,-2.49 18.894,-6.28 L 1034.65,619.274 c 22.86,-15.81 49.61,-25.069 77.35,-26.773 27.75,-1.705 55.43,4.21 80.06,17.103 24.62,12.893 45.26,32.274 59.66,56.047 14.41,23.773 22.04,51.033 22.07,78.83 v 292.979 c -0.12,49.28 -12.16,97.8 -35.11,141.41 -22.95,43.6 -56.12,81.01 -96.67,109.01 l -234.762,162.14 -26.919,18.47 c -20.236,13.98 -36.748,32.7 -48.095,54.52 -11.348,21.82 -17.188,46.09 -17.013,70.68 v 408.49 c -0.24,6.8 1.421,13.54 4.797,19.45 3.376,5.92 8.333,10.77 14.316,14.02 5.982,3.25 12.752,4.77 19.55,4.39 6.797,-0.38 13.354,-2.66 18.932,-6.56 L 1057.18,1906.4 c 20.22,-14 36.72,-32.73 48.06,-54.54 11.35,-21.82 17.2,-46.08 17.05,-70.67 v -105.8 l 224.75,-156.51 c 34.11,-23.54 65.27,-50.83 92.96,-81.26 z"
         fill="#ffffff"
         id="path4"
         style="display:inline" /><path
         d="m 1440,1879.49 c -63.26,11.98 -123.51,37.19 -176.7,74.22 l -701.161,483.92 c -20.274,13.96 -36.832,32.67 -48.233,54.49 -11.401,21.82 -17.301,46.1 -17.187,70.71 v 222.56 c -0.126,6.76 1.607,13.43 5.008,19.27 3.402,5.84 8.343,10.64 14.284,13.87 5.941,3.23 12.655,4.76 19.409,4.44 6.754,-0.32 13.29,-2.5 18.894,-6.28 l 883.336,-611.32 c 0.78,-0.54 1.56,-1.07 2.35,-1.6 z"
         fill="#ffffff"
         id="path5"
         style="display:inline" /><path
         d="M 1310.25,3036.11 1440,2946.5 v 559.9 l -164.18,113.18 c -5.58,3.9 -12.14,6.17 -18.94,6.55 -6.79,0.39 -13.56,-1.13 -19.55,-4.38 -5.98,-3.25 -10.94,-8.11 -14.31,-14.02 -3.38,-5.91 -5.04,-12.65 -4.8,-19.45 v -408.49 c -0.17,-24.6 5.67,-48.86 17.01,-70.69 11.35,-21.82 27.86,-40.54 48.1,-54.52 z"
         fill="#ffffff"
         id="path6"
         style="display:inline" /></g><g
       id="g8-9-2"
       transform="matrix(42.682212,0,0,42.682212,-547.19912,1699.5152)"
       style="opacity:0.2"
       inkscape:label="rx-logo"><path
         d="m 0,1110.3828 74.472656,-43 139.884764,80.6953 111.95703,-64.6054 -88.5332,-51.1856 v -59.18749 l 190.15234,-109.79102 139.88477,80.69532 109.54101,-63.18946 -88.5332,-51.18554 v -59.1875 l 188.73633,-109.03907 139.88281,80.7793 109.79099,-63.43945 -88.53318,-51.10352 v -59.27148 l 187.06838,-107.95508 51.3515,29.59375 177.6485,-102.53711 v -59.27148 l -31.5938,-18.17383 V 178.05859 l 31.5938,-18.25586 v -55.9375 L 1169.5371,-3.0898438 202.68555,152.29883 v 70.27734 l 35.0957,20.25586 v 103.78906 l -35.0957,20.25586 v 39.18164 L 316.97656,472 0,655.02344 v 81.63867 L 667.93945,351.03906 393.42187,192.48047 1155.5332,70.019531 1267.3242,134.62695 0,866.33789 Z"
         style="display:inline;fill:#ffffff"
         id="path16"
         transform="matrix(0.02342896,0,0,0.02342896,12.820308,-39.81788)" /><path
         d="m 0,2839.6641 74.472656,-43 139.884764,80.6972 111.95703,-64.6074 -88.5332,-51.1855 v -59.1875 l 190.15234,-109.7911 139.88477,80.6973 109.54101,-63.1894 -88.5332,-51.1856 v -59.1894 l 188.73633,-109.0391 139.88281,80.7793 109.79099,-63.4395 -88.53318,-51.1015 v -59.2715 l 187.06838,-107.957 51.3515,29.5937 177.6485,-102.5371 v -59.2715 l -31.5938,-18.1738 v -131.9629 l 31.5938,-18.2578 v -55.9375 L 1169.5371,1726.1914 202.68555,1881.582 v 70.2754 l 35.0957,20.2578 v 103.7871 l -35.0957,20.2579 v 39.1796 L 316.97656,2201.2813 0,2384.3047 v 81.6387 l 667.93945,-385.6231 -274.51758,-158.5566 762.11133,-122.4629 111.791,64.6074 L 0,2595.6191 Z"
         style="display:inline;fill:#ffffff"
         id="path14"
         transform="matrix(0.02342896,0,0,0.02342896,12.820308,-39.81788)" /><path
         d="M 1440,2217.6133 37,3027.582 v 61.8555 l 39.347656,22.6758 v 107.039 L 37,3241.5762 v 56.4375 l 195.48828,112.875 908.91402,-146.1367 v -73.1934 l -38.6816,-22.3418 v -115.041 l 38.6816,-6.252 v -61.5234 L 1054.5371,2936.2148 1440,2713.6992 v -282.123 L 744.17383,2833.3457 1030.5293,2998.6543 236.99023,3126.1172 124.78125,3061.3438 1440,2302 Z"
         style="display:inline;fill:#ffffff"
         id="path12"
         transform="matrix(0.02342896,0,0,0.02342896,12.820308,-39.81788)" /><path
         d="M 1440,488.33203 37,1298.3008 v 61.8555 l 39.347656,22.6757 v 107.0391 L 37,1512.2949 v 56.4375 l 195.48828,112.875 908.91402,-146.1367 v -73.1934 l -38.6816,-22.3418 v -115.0429 l 38.6816,-6.252 v -61.5215 L 1054.5371,1206.9336 1440,984.41797 V 702.29492 L 744.17383,1104.0625 1030.5293,1269.373 236.99023,1396.8359 124.78125,1332.0625 1440,572.71875 Z"
         style="display:inline;fill:#ffffff"
         id="path10"
         transform="matrix(0.02342896,0,0,0.02342896,12.820308,-39.81788)" /></g><path
       d="m 0,110.849 c 239.833,17.984 479.667,17.694 719.5,-0.868 C 903.16,95.7658 1086.82,70.8348 1270.48,45.9039 1326.99,38.2334 1383.49,30.563 1440,23.2046 V -16.332 H 0 Z"
       fill="#ffffff"
       id="path7"
       style="opacity:1;display:inline"
       transform="translate(-1.6038704e-5)" /></g></svg>

<svg width="1440" height="3660" viewBox="0 0 1440 3660" fill="none" xmlns="http://www.w3.org/2000/svg">
<g clip-path="url(#clip0_1_5)">
<rect width="1440" height="3660" fill="#FFA600"/>
<g opacity="0.2">
<path d="M0 3077.68C4.10338 3085.46 8.4368 3093.13 12.9973 3100.68C56.2982 3172.4 118.42 3230.89 192.618 3269.8C266.816 3308.7 350.255 3326.54 433.874 3321.36C517.494 3316.19 598.099 3288.21 666.938 3240.46L1367.47 2756.85C1387.67 2742.83 1404.15 2724.11 1415.49 2702.29C1426.83 2680.48 1432.7 2656.23 1432.58 2631.65V2409.09C1432.77 2402.34 1431.1 2395.66 1427.74 2389.8C1424.38 2383.94 1419.46 2379.12 1413.53 2375.88C1407.6 2372.64 1400.89 2371.1 1394.14 2371.44C1387.39 2371.78 1380.87 2373.97 1375.29 2377.79L491.962 2988.8C469.099 3004.61 442.349 3013.87 414.604 3015.57C386.859 3017.27 359.176 3011.36 334.55 2998.47C309.924 2985.57 289.292 2966.19 274.886 2942.42C260.48 2918.65 252.849 2891.39 252.817 2863.59V2569.04C253.005 2519.71 265.148 2471.16 288.208 2427.54C311.268 2383.93 344.557 2346.56 385.223 2318.63L647.844 2137.08C668.119 2123.14 684.66 2104.43 696.012 2082.6C707.365 2060.76 713.181 2036.48 712.951 2011.87V1604.01C713.192 1597.21 711.531 1590.47 708.155 1584.56C704.779 1578.65 699.821 1573.79 693.839 1570.54C687.857 1567.29 681.087 1565.77 674.289 1566.15C667.491 1566.54 660.935 1568.81 655.356 1572.71L471.303 1701.05C451.105 1715.07 434.623 1733.79 423.28 1755.61C411.937 1777.42 406.073 1801.67 406.195 1826.25V1933.31L180.824 2089.81C109.024 2139.39 50.2681 2205.58 9.55652 2282.75C6.24318 2289.04 3.05734 2295.37 0 2301.77V3077.68Z" fill="white"/>
<path d="M0 1736.14C10.2774 1736.19 20.5745 1735.91 30.8743 1735.27C114.494 1730.1 195.099 1702.12 263.938 1654.37L964.468 1170.76C984.666 1156.74 1001.15 1138.01 1012.49 1116.2C1023.83 1094.38 1029.7 1070.14 1029.58 1045.55V822.995C1029.77 816.241 1028.1 809.564 1024.74 803.703C1021.38 797.842 1016.46 793.025 1010.53 789.785C1004.6 786.545 997.891 785.008 991.143 785.345C984.394 785.682 977.871 787.879 972.294 791.693L88.9618 1402.7C66.0991 1418.51 39.3485 1427.77 11.6037 1429.47C7.73186 1429.71 3.86126 1429.8 0 1429.74V1736.14Z" fill="white"/>
<path d="M0 720.244L244.844 550.984C265.119 537.041 281.66 518.332 293.012 496.5C304.365 474.669 310.181 450.383 309.951 425.777V17.9171C310.192 11.1127 308.531 4.37603 305.155 -1.5366C301.779 -7.44923 296.821 -12.3037 290.839 -15.5549C284.857 -18.8061 278.087 -20.3253 271.289 -19.9419C264.491 -19.5585 257.935 -17.2877 252.356 -13.3846L68.3027 114.952C48.1052 128.972 31.6233 147.698 20.2801 169.512C8.93695 191.325 3.0733 215.572 3.19537 240.159V347.21L0 349.429V720.244Z" fill="white"/>
<path d="M1440 413.29C1408.88 383.389 1373.55 357.893 1334.96 337.692C1260.67 298.803 1177.13 281.03 1093.45 286.305C1009.76 291.579 929.117 319.701 860.296 367.609L159.139 851.532C138.865 865.498 122.307 884.204 110.906 906.025C99.5051 927.845 93.6051 952.12 93.7191 976.739V1199.29C93.5932 1206.05 95.3256 1212.72 98.7274 1218.56C102.129 1224.41 107.07 1229.2 113.011 1232.43C118.952 1235.66 125.666 1237.2 132.42 1236.87C139.174 1236.55 145.71 1234.38 151.314 1230.59L1034.65 619.274C1057.51 603.464 1084.26 594.205 1112 592.501C1139.75 590.796 1167.43 596.711 1192.06 609.604C1216.68 622.497 1237.32 641.878 1251.72 665.651C1266.13 689.424 1273.76 716.684 1273.79 744.481V1037.46C1273.67 1086.74 1261.63 1135.26 1238.68 1178.87C1215.73 1222.47 1182.56 1259.88 1142.01 1287.88L907.248 1450.02L880.329 1468.49C860.093 1482.47 843.581 1501.19 832.234 1523.01C820.886 1544.83 815.046 1569.1 815.221 1593.69V2002.18C814.981 2008.98 816.642 2015.72 820.018 2021.63C823.394 2027.55 828.351 2032.4 834.334 2035.65C840.316 2038.9 847.086 2040.42 853.884 2040.04C860.681 2039.66 867.238 2037.38 872.816 2033.48L1057.18 1906.4C1077.4 1892.4 1093.9 1873.67 1105.24 1851.86C1116.59 1830.04 1122.44 1805.78 1122.29 1781.19V1675.39L1347.04 1518.88C1381.15 1495.34 1412.31 1468.05 1440 1437.62V413.29Z" fill="white"/>
<path d="M1440 1879.49C1376.74 1891.47 1316.49 1916.68 1263.3 1953.71L562.139 2437.63C541.865 2451.59 525.307 2470.3 513.906 2492.12C502.505 2513.94 496.605 2538.22 496.719 2562.83V2785.39C496.593 2792.15 498.326 2798.82 501.727 2804.66C505.129 2810.5 510.07 2815.3 516.011 2818.53C521.952 2821.76 528.666 2823.29 535.42 2822.97C542.174 2822.65 548.71 2820.47 554.314 2816.69L1437.65 2205.37C1438.43 2204.83 1439.21 2204.3 1440 2203.77V1879.49Z" fill="white"/>
<path d="M1310.25 3036.11L1440 2946.5V3506.4L1275.82 3619.58C1270.24 3623.48 1263.68 3625.75 1256.88 3626.13C1250.09 3626.52 1243.32 3625 1237.33 3621.75C1231.35 3618.5 1226.39 3613.64 1223.02 3607.73C1219.64 3601.82 1217.98 3595.08 1218.22 3588.28V3179.79C1218.05 3155.19 1223.89 3130.93 1235.23 3109.1C1246.58 3087.28 1263.09 3068.56 1283.33 3054.58L1310.25 3036.11Z" fill="white"/>
</g>
<path d="M0 110.849C239.833 128.833 479.667 128.543 719.5 109.981C903.16 95.7658 1086.82 70.8348 1270.48 45.9039C1326.99 38.2334 1383.49 30.563 1440 23.2046V-16.332H0V110.849Z" fill="white"/>
</g>
<defs>
<clipPath id="clip0_1_5">
<rect width="1440" height="3660" fill="white"/>
</clipPath>
</defs>
</svg>
